flaticon/business/notes.svg

<svg xmlns="http://www.w3.org/2000/svg" width="32" height="32" viewBox="0 0 24 24">
    <path d="M 23.207031 6.65625 L 2.070312 3.273438 L 2.070312 5.066406 L 0.828125 4.96875 L 0.828125 6.65625 L 0 6.65625 L 0 20.726562 L 24 20.726562 L 24 6.65625 Z M 2.898438 4.246094 L 13.988281 6.019531 L 2.898438 5.132812 Z M 1.65625 5.863281 L 2.070312 5.894531 L 2.070312 5.898438 L 4.863281 6.121094 L 11.570312 6.65625 L 1.65625 6.65625 Z M 23.171875 19.898438 L 0.828125 19.898438 L 0.828125 7.484375 L 23.171875 7.484375 Z M 23.171875 19.898438"/>
    <path d="M2.691406 10.792969C3.488281 10.792969 4.136719 10.144531 4.136719 9.347656 4.136719 8.546875 3.488281 7.898438 2.691406 7.898438 1.890625 7.898438 1.242188 8.546875 1.242188 9.347656 1.242188 10.144531 1.890625 10.792969 2.691406 10.792969zM2.691406 8.726562C3.03125 8.726562 3.308594 9.003906 3.308594 9.347656 3.308594 9.6875 3.03125 9.964844 2.691406 9.964844 2.347656 9.964844 2.070312 9.6875 2.070312 9.347656 2.070312 9.003906 2.347656 8.726562 2.691406 8.726562zM19.863281 9.347656C19.863281 10.144531 20.511719 10.792969 21.308594 10.792969 22.109375 10.792969 22.757812 10.144531 22.757812 9.347656 22.757812 8.546875 22.109375 7.898438 21.308594 7.898438 20.511719 7.898438 19.863281 8.546875 19.863281 9.347656zM21.929688 9.347656C21.929688 9.6875 21.652344 9.964844 21.308594 9.964844 20.96875 9.964844 20.691406 9.6875 20.691406 9.347656 20.691406 9.003906 20.96875 8.726562 21.308594 8.726562 21.652344 8.726562 21.929688 9.003906 21.929688 9.347656zM2.691406 16.585938C1.890625 16.585938 1.242188 17.238281 1.242188 18.035156 1.242188 18.835938 1.890625 19.484375 2.691406 19.484375 3.488281 19.484375 4.136719 18.835938 4.136719 18.035156 4.136719 17.238281 3.488281 16.585938 2.691406 16.585938zM2.691406 18.65625C2.347656 18.65625 2.070312 18.378906 2.070312 18.035156 2.070312 17.695312 2.347656 17.414062 2.691406 17.414062 3.03125 17.414062 3.308594 17.695312 3.308594 18.035156 3.308594 18.378906 3.03125 18.65625 2.691406 18.65625zM21.308594 16.585938C20.511719 16.585938 19.863281 17.238281 19.863281 18.035156 19.863281 18.835938 20.511719 19.484375 21.308594 19.484375 22.109375 19.484375 22.757812 18.835938 22.757812 18.035156 22.757812 17.238281 22.109375 16.585938 21.308594 16.585938zM21.308594 18.65625C20.96875 18.65625 20.691406 18.378906 20.691406 18.035156 20.691406 17.695312 20.96875 17.414062 21.308594 17.414062 21.652344 17.414062 21.929688 17.695312 21.929688 18.035156 21.929688 18.378906 21.652344 18.65625 21.308594 18.65625zM21.308594 18.65625"/>
    <path d="M 13.054688 19.382812 C 13.105469 19.375 13.15625 19.367188 13.207031 19.355469 C 13.359375 19.324219 13.511719 19.285156 13.660156 19.238281 C 13.726562 19.21875 13.796875 19.195312 13.863281 19.171875 C 13.949219 19.140625 14.039062 19.109375 14.125 19.074219 C 14.199219 19.046875 14.273438 19.015625 14.34375 18.984375 C 14.425781 18.945312 14.507812 18.90625 14.589844 18.867188 C 14.703125 18.808594 14.8125 18.75 14.917969 18.6875 C 14.9375 18.675781 14.953125 18.667969 14.96875 18.65625 L 19.496094 18.65625 L 19.457031 18.207031 C 19.453125 18.148438 19.449219 18.09375 19.449219 18.035156 C 19.449219 17.007812 20.285156 16.171875 21.308594 16.171875 C 21.367188 16.171875 21.421875 16.175781 21.480469 16.183594 L 21.929688 16.222656 L 21.929688 11.15625 L 21.480469 11.199219 C 21.421875 11.203125 21.367188 11.207031 21.308594 11.207031 C 20.285156 11.207031 19.449219 10.371094 19.449219 9.347656 C 19.449219 9.289062 19.453125 9.230469 19.457031 9.175781 L 19.496094 8.726562 L 14.96875 8.726562 C 14.097656 8.203125 13.085938 7.898438 12 7.898438 C 10.914062 7.898438 9.902344 8.203125 9.03125 8.726562 L 4.5 8.726562 L 4.542969 9.175781 C 4.546875 9.234375 4.550781 9.289062 4.550781 9.347656 C 4.550781 10.371094 3.714844 11.207031 2.691406 11.207031 C 2.632812 11.207031 2.578125 11.203125 2.519531 11.199219 L 2.070312 11.15625 L 2.070312 16.222656 L 2.519531 16.183594 C 2.578125 16.175781 2.632812 16.171875 2.691406 16.171875 C 3.714844 16.171875 4.550781 17.007812 4.550781 18.035156 C 4.550781 18.09375 4.546875 18.148438 4.542969 18.203125 L 4.5 18.65625 L 9.023438 18.65625 C 9.085938 18.695312 9.152344 18.734375 9.21875 18.769531 C 9.242188 18.78125 9.261719 18.792969 9.285156 18.804688 C 9.417969 18.875 9.554688 18.941406 9.695312 19.003906 C 9.726562 19.015625 9.757812 19.03125 9.789062 19.042969 C 9.945312 19.109375 10.105469 19.167969 10.269531 19.21875 C 10.273438 19.21875 10.277344 19.222656 10.28125 19.222656 C 10.449219 19.277344 10.621094 19.320312 10.792969 19.355469 C 10.835938 19.363281 10.875 19.371094 10.917969 19.378906 C 11.050781 19.402344 11.1875 19.425781 11.320312 19.441406 C 11.371094 19.445312 11.417969 19.453125 11.46875 19.457031 C 11.644531 19.472656 11.820312 19.484375 12 19.484375 C 12.175781 19.484375 12.347656 19.472656 12.519531 19.457031 C 12.574219 19.453125 12.628906 19.445312 12.679688 19.441406 C 12.804688 19.425781 12.929688 19.40625 13.054688 19.382812 Z M 10.855469 18.519531 C 10.828125 18.511719 10.800781 18.503906 10.777344 18.496094 C 10.640625 18.464844 10.507812 18.421875 10.375 18.378906 C 10.316406 18.355469 10.253906 18.335938 10.195312 18.3125 C 10.101562 18.277344 10.007812 18.234375 9.917969 18.191406 C 9.871094 18.171875 9.828125 18.148438 9.78125 18.128906 L 10.878906 17.585938 C 11.117188 17.46875 11.265625 17.230469 11.265625 16.96875 L 11.265625 16.28125 L 11.015625 16.175781 C 10.484375 15.945312 10.140625 15.507812 9.960938 14.835938 L 9.898438 14.617188 L 9.683594 14.546875 C 9.550781 14.507812 9.464844 14.390625 9.464844 14.257812 L 9.464844 13.898438 C 9.464844 13.765625 9.550781 13.671875 9.628906 13.628906 L 9.824219 13.527344 L 9.847656 13.308594 C 9.882812 12.972656 9.957031 12.667969 10.066406 12.394531 C 10.113281 12.28125 10.15625 12.191406 10.1875 12.121094 C 10.296875 11.886719 10.347656 11.746094 10.335938 11.519531 C 10.75 11.730469 11.238281 11.820312 11.765625 11.78125 C 11.820312 11.777344 11.875 11.773438 11.933594 11.773438 C 13.246094 11.773438 13.890625 12.246094 14.015625 13.3125 L 14.039062 13.527344 L 14.230469 13.628906 C 14.3125 13.671875 14.398438 13.765625 14.398438 13.898438 L 14.398438 14.257812 C 14.398438 14.390625 14.3125 14.507812 14.179688 14.546875 L 13.964844 14.617188 L 13.902344 14.835938 C 13.726562 15.507812 13.378906 15.945312 12.847656 16.175781 L 12.597656 16.28125 L 12.597656 16.96875 C 12.597656 17.230469 12.742188 17.464844 12.976562 17.585938 L 14.125 18.171875 C 14.109375 18.179688 14.09375 18.1875 14.078125 18.195312 C 13.9375 18.261719 13.789062 18.320312 13.640625 18.371094 C 13.625 18.378906 13.605469 18.386719 13.589844 18.390625 C 12.710938 18.6875 11.753906 18.726562 10.855469 18.519531 Z M 16.050781 9.554688 L 18.628906 9.554688 C 18.730469 10.871094 19.785156 11.925781 21.101562 12.027344 L 21.101562 15.355469 C 19.785156 15.453125 18.730469 16.511719 18.628906 17.828125 L 16.050781 17.828125 C 16.054688 17.824219 16.0625 17.816406 16.066406 17.808594 C 16.136719 17.738281 16.203125 17.664062 16.269531 17.589844 C 16.335938 17.519531 16.402344 17.453125 16.460938 17.378906 C 16.484375 17.351562 16.507812 17.320312 16.527344 17.292969 C 17.207031 16.445312 17.636719 15.421875 17.757812 14.320312 C 17.757812 14.308594 17.761719 14.292969 17.761719 14.28125 C 17.78125 14.085938 17.792969 13.890625 17.792969 13.691406 C 17.792969 13.492188 17.78125 13.292969 17.761719 13.101562 C 17.761719 13.085938 17.757812 13.074219 17.757812 13.058594 C 17.636719 11.960938 17.207031 10.9375 16.53125 10.089844 C 16.507812 10.058594 16.488281 10.03125 16.464844 10 C 16.402344 9.929688 16.335938 9.859375 16.269531 9.789062 C 16.203125 9.714844 16.140625 9.640625 16.066406 9.570312 C 16.0625 9.566406 16.054688 9.558594 16.050781 9.554688 Z M 14.652344 9.5 C 14.996094 9.71875 15.300781 9.972656 15.574219 10.253906 C 15.613281 10.292969 15.648438 10.332031 15.683594 10.371094 C 15.773438 10.472656 15.855469 10.574219 15.9375 10.675781 C 15.980469 10.730469 16.019531 10.785156 16.0625 10.84375 C 16.136719 10.949219 16.207031 11.058594 16.273438 11.171875 C 16.300781 11.222656 16.332031 11.269531 16.363281 11.320312 C 16.445312 11.476562 16.523438 11.636719 16.589844 11.800781 C 16.613281 11.863281 16.636719 11.925781 16.660156 11.988281 C 16.699219 12.105469 16.742188 12.222656 16.773438 12.339844 C 16.792969 12.410156 16.8125 12.476562 16.828125 12.546875 C 16.855469 12.671875 16.882812 12.800781 16.902344 12.929688 C 16.910156 12.988281 16.921875 13.050781 16.929688 13.113281 C 16.949219 13.300781 16.964844 13.496094 16.964844 13.691406 C 16.964844 13.886719 16.949219 14.078125 16.929688 14.269531 C 16.921875 14.332031 16.910156 14.390625 16.902344 14.453125 C 16.878906 14.582031 16.855469 14.707031 16.828125 14.835938 C 16.808594 14.902344 16.792969 14.972656 16.773438 15.039062 C 16.742188 15.160156 16.699219 15.277344 16.660156 15.390625 C 16.636719 15.457031 16.613281 15.519531 16.589844 15.582031 C 16.519531 15.746094 16.445312 15.90625 16.359375 16.0625 C 16.332031 16.113281 16.300781 16.160156 16.273438 16.207031 C 16.203125 16.320312 16.136719 16.433594 16.0625 16.539062 C 16.019531 16.59375 15.980469 16.648438 15.9375 16.703125 C 15.855469 16.808594 15.773438 16.910156 15.683594 17.007812 C 15.648438 17.046875 15.613281 17.089844 15.574219 17.125 C 15.378906 17.328125 15.160156 17.511719 14.929688 17.679688 C 14.859375 17.628906 14.785156 17.578125 14.707031 17.539062 L 13.425781 16.886719 L 13.425781 16.808594 C 14.003906 16.484375 14.414062 15.960938 14.644531 15.242188 C 15 15.046875 15.226562 14.671875 15.226562 14.257812 L 15.226562 13.894531 C 15.226562 13.554688 15.070312 13.234375 14.808594 13.019531 C 14.636719 12.03125 13.976562 10.945312 11.929688 10.945312 C 11.851562 10.945312 11.773438 10.949219 11.699219 10.953125 C 11.394531 10.976562 10.953125 10.953125 10.570312 10.695312 C 10.429688 10.597656 10.320312 10.507812 10.253906 10.421875 C 10.117188 10.246094 9.890625 10.1875 9.683594 10.269531 C 9.480469 10.355469 9.363281 10.558594 9.386719 10.773438 C 9.402344 10.910156 9.425781 11.070312 9.460938 11.242188 C 9.527344 11.578125 9.527344 11.578125 9.4375 11.773438 C 9.398438 11.851562 9.355469 11.949219 9.300781 12.082031 C 9.183594 12.371094 9.097656 12.6875 9.046875 13.027344 C 8.789062 13.238281 8.636719 13.554688 8.636719 13.894531 L 8.636719 14.257812 C 8.636719 14.671875 8.859375 15.046875 9.214844 15.242188 C 9.449219 15.960938 9.855469 16.484375 10.4375 16.808594 L 10.4375 16.882812 L 9.105469 17.535156 C 9.0625 17.558594 9.023438 17.589844 8.984375 17.621094 C 8.785156 17.464844 8.59375 17.304688 8.421875 17.125 C 8.386719 17.089844 8.351562 17.046875 8.316406 17.007812 C 8.226562 16.910156 8.140625 16.808594 8.0625 16.703125 C 8.019531 16.648438 7.976562 16.59375 7.9375 16.539062 C 7.863281 16.429688 7.792969 16.320312 7.726562 16.207031 C 7.699219 16.160156 7.664062 16.113281 7.636719 16.0625 C 7.550781 15.90625 7.476562 15.746094 7.410156 15.582031 C 7.382812 15.519531 7.363281 15.453125 7.339844 15.390625 C 7.296875 15.277344 7.257812 15.160156 7.222656 15.039062 C 7.203125 14.972656 7.1875 14.902344 7.171875 14.832031 C 7.140625 14.707031 7.117188 14.582031 7.097656 14.453125 C 7.089844 14.390625 7.078125 14.332031 7.070312 14.269531 C 7.050781 14.078125 7.035156 13.886719 7.035156 13.691406 C 7.035156 13.496094 7.050781 13.300781 7.070312 13.113281 C 7.078125 13.050781 7.089844 12.988281 7.097656 12.929688 C 7.121094 12.800781 7.144531 12.671875 7.171875 12.546875 C 7.191406 12.476562 7.207031 12.410156 7.226562 12.339844 C 7.257812 12.222656 7.300781 12.105469 7.339844 11.988281 C 7.363281 11.925781 7.386719 11.863281 7.410156 11.800781 C 7.480469 11.636719 7.554688 11.476562 7.640625 11.320312 C 7.667969 11.269531 7.699219 11.222656 7.726562 11.171875 C 7.796875 11.0625 7.863281 10.949219 7.9375 10.84375 C 7.980469 10.785156 8.019531 10.730469 8.0625 10.675781 C 8.144531 10.574219 8.226562 10.472656 8.316406 10.375 C 8.351562 10.332031 8.386719 10.292969 8.425781 10.253906 C 8.699219 9.972656 9.003906 9.71875 9.347656 9.5 C 10.117188 9.011719 11.023438 8.726562 12 8.726562 C 12.976562 8.726562 13.886719 9.011719 14.652344 9.5 Z M 5.371094 17.828125 C 5.269531 16.511719 4.214844 15.453125 2.898438 15.355469 L 2.898438 12.027344 C 4.214844 11.925781 5.269531 10.871094 5.371094 9.554688 L 7.949219 9.554688 C 7.945312 9.558594 7.9375 9.566406 7.933594 9.570312 C 7.863281 9.640625 7.796875 9.714844 7.730469 9.789062 C 7.664062 9.859375 7.597656 9.929688 7.539062 10 C 7.515625 10.03125 7.492188 10.0625 7.472656 10.089844 C 6.792969 10.9375 6.363281 11.960938 6.242188 13.058594 C 6.242188 13.074219 6.238281 13.085938 6.238281 13.101562 C 6.21875 13.292969 6.207031 13.492188 6.207031 13.691406 C 6.207031 13.890625 6.21875 14.085938 6.238281 14.28125 C 6.238281 14.296875 6.242188 14.308594 6.242188 14.320312 C 6.363281 15.421875 6.792969 16.445312 7.46875 17.292969 C 7.492188 17.320312 7.511719 17.351562 7.535156 17.378906 C 7.597656 17.453125 7.664062 17.519531 7.730469 17.589844 C 7.796875 17.664062 7.859375 17.738281 7.933594 17.808594 C 7.9375 17.816406 7.945312 17.824219 7.949219 17.828125 Z M 5.371094 17.828125"/>
</svg>

<svg xmlns="http://www.w3.org/2000/svg" width="32" height="32" viewBox="0 0 24 24">
    <path d="M23.207 6.656L2.07 3.273v1.793L.828 4.97v1.687H0v14.07h24V6.657zM2.898 4.246l11.09 1.774-11.09-.887zM1.656 5.863l.414.032v.003l2.793.223 6.707.535H1.656zm21.516 14.035H.828V7.484h22.344zm0 0"/>
    <path d="M2.691 10.793a1.447 1.447 0 1 0-.003-2.894 1.447 1.447 0 0 0 .003 2.894zm0-2.066a.62.62 0 1 1-.004 1.238.62.62 0 0 1 .004-1.238zm0 0M19.863 9.348a1.447 1.447 0 1 0 2.894-.004 1.447 1.447 0 0 0-2.894.004zm2.067 0a.62.62 0 1 1-1.239-.005.62.62 0 0 1 1.239.005zm0 0M2.691 16.586a1.449 1.449 0 1 0 0 2.898c.797 0 1.446-.648 1.446-1.449a1.45 1.45 0 0 0-1.446-1.45zm0 2.07a.62.62 0 1 1-.001-1.24.62.62 0 0 1 .001 1.24zm0 0M21.309 16.586a1.45 1.45 0 0 0 0 2.898 1.449 1.449 0 1 0 0-2.898zm0 2.07a.622.622 0 0 1 0-1.242.62.62 0 1 1 0 1.242zm0 0"/>
    <path d="M13.055 19.383c.05-.008.101-.016.152-.028.152-.03.305-.07.453-.117.067-.02.137-.043.203-.066.086-.031.176-.063.262-.098.074-.027.148-.058.219-.09l.246-.117a6.5 6.5 0 0 0 .328-.18c.02-.011.035-.019.05-.03h4.528l-.039-.45c-.004-.059-.008-.113-.008-.172 0-1.027.836-1.863 1.86-1.863.058 0 .113.004.171.012l.45.039v-5.067l-.45.043c-.058.004-.113.008-.171.008a1.864 1.864 0 0 1-1.852-2.031l.04-.45h-4.528a5.739 5.739 0 0 0-5.938 0H4.5l.043.45c.004.058.008.113.008.172 0 1.023-.836 1.859-1.86 1.859-.058 0-.113-.004-.171-.008l-.45-.043v5.067l.45-.04a1.27 1.27 0 0 1 .171-.011 1.865 1.865 0 0 1 1.852 2.031l-.043.453h4.523c.063.04.13.078.196.114.023.011.043.023.066.035.133.07.27.136.41.199.032.012.063.027.094.039.156.066.316.125.48.176.004 0 .008.004.012.004.168.054.34.097.512.132l.125.024c.133.023.27.047.402.062.051.004.098.012.149.016.176.016.351.027.531.027.176 0 .348-.011.52-.027.054-.004.109-.012.16-.016.125-.015.25-.035.375-.058zm-2.2-.863a1.973 1.973 0 0 1-.078-.024 4.745 4.745 0 0 1-.402-.117c-.059-.024-.121-.043-.18-.067a3.501 3.501 0 0 1-.277-.12c-.047-.02-.09-.044-.137-.063l1.098-.543a.687.687 0 0 0 .387-.617v-.688l-.25-.105c-.532-.23-.875-.668-1.055-1.34l-.063-.219-.214-.07a.3.3 0 0 1-.22-.29v-.359c0-.132.087-.226.165-.27l.195-.1.024-.22c.035-.335.109-.64.218-.913.047-.114.09-.204.121-.274.11-.234.16-.375.149-.601.414.21.902.3 1.43.261.054-.004.109-.008.168-.008 1.312 0 1.957.473 2.082 1.54l.023.214.191.102a.307.307 0 0 1 .168.27v.359a.3.3 0 0 1-.218.289l-.215.07-.063.219c-.175.672-.523 1.11-1.054 1.34l-.25.105v.688a.69.69 0 0 0 .379.617l1.148.586-.047.023a4.26 4.26 0 0 1-.437.176 5.048 5.048 0 0 1-2.785.148zm5.196-8.965h2.578a2.695 2.695 0 0 0 2.473 2.472v3.328a2.691 2.691 0 0 0-2.473 2.473H16.05a.085.085 0 0 0 .015-.02c.07-.07.137-.144.204-.218.066-.07.132-.137.19-.211.024-.027.048-.059.067-.086a5.741 5.741 0 0 0 1.23-2.973c0-.011.005-.027.005-.039.02-.195.031-.39.031-.59 0-.199-.012-.398-.031-.59 0-.015-.004-.027-.004-.042a5.77 5.77 0 0 0-1.227-2.97L16.465 10a9.611 9.611 0 0 0-.195-.21c-.067-.075-.13-.15-.204-.22l-.015-.015zM14.652 9.5a5.106 5.106 0 0 1 1.032.871c.09.102.171.203.254.305.042.054.082.11.124.168a4.7 4.7 0 0 1 .211.328c.028.05.059.098.09.148.082.157.16.317.227.48l.07.188c.04.117.082.235.113.352.02.07.04.137.055.207.027.125.055.254.074.383.008.058.02.12.028.183.02.188.035.383.035.578 0 .196-.016.387-.035.579-.008.062-.02.12-.028.183a13.22 13.22 0 0 1-.074.383c-.02.066-.035.137-.055.203-.03.121-.074.238-.113.352-.023.066-.047.129-.07.191-.07.164-.145.324-.23.48-.028.051-.06.098-.087.145-.07.113-.136.227-.21.332l-.125.164a4.767 4.767 0 0 1-.254.305c-.036.039-.07.082-.11.117a4.87 4.87 0 0 1-.644.555 1.645 1.645 0 0 0-.223-.14l-1.281-.653v-.078c.578-.325.988-.848 1.219-1.567.355-.195.582-.57.582-.984v-.363c0-.34-.157-.66-.418-.875-.172-.989-.832-2.075-2.88-2.075-.077 0-.156.004-.23.008-.304.024-.746 0-1.129-.258a1.458 1.458 0 0 1-.316-.273.485.485 0 0 0-.867.351c.015.137.039.297.074.47.066.335.066.335-.024.53a4.143 4.143 0 0 0-.39 1.254c-.258.211-.41.528-.41.868v.363c0 .414.222.789.578.984.234.719.64 1.242 1.223 1.567v.074l-1.333.652c-.043.024-.082.055-.12.086-.2-.156-.391-.316-.563-.496-.035-.035-.07-.078-.106-.117-.09-.098-.175-.2-.254-.305a4.562 4.562 0 0 1-.124-.164 5.938 5.938 0 0 1-.211-.332c-.028-.047-.063-.094-.09-.145a4.483 4.483 0 0 1-.227-.48c-.027-.062-.047-.129-.07-.191a4.633 4.633 0 0 1-.117-.352 3.207 3.207 0 0 1-.051-.207 4.059 4.059 0 0 1-.074-.379c-.008-.062-.02-.121-.028-.183a5.67 5.67 0 0 1-.035-.579c0-.195.016-.39.035-.578.008-.062.02-.125.028-.183.023-.13.047-.258.074-.383.02-.07.035-.137.055-.207.03-.117.074-.235.113-.352l.07-.187c.07-.164.145-.324.23-.48.028-.051.06-.098.087-.15.07-.108.136-.222.21-.327.043-.059.083-.114.125-.168.083-.102.165-.203.254-.301a1.61 1.61 0 0 1 .11-.121c.273-.281.578-.535.922-.754a4.928 4.928 0 0 1 5.304 0zm-9.28 8.328a2.691 2.691 0 0 0-2.474-2.473v-3.328a2.695 2.695 0 0 0 2.473-2.472H7.95l-.015.015c-.07.07-.137.145-.204.22-.066.07-.132.14-.19.21a5.076 5.076 0 0 0-.067.09 5.742 5.742 0 0 0-1.23 2.969c0 .015-.005.027-.005.043-.02.191-.031.39-.031.59 0 .199.012.394.031.59 0 .015.004.027.004.038a5.769 5.769 0 0 0 1.227 2.973c.023.027.043.059.066.086.063.074.13.14.195.21.067.075.13.15.204.22a.085.085 0 0 0 .015.02zm0 0"/>
</svg>
